static/files/images/img-quote.svg

<?xml version="1.0" encoding="UTF-8"?>
<svg version="1.1" viewBox="0 0 56 48" xmlns="http://www.w3.org/2000/svg" xmlns:xlink="http://www.w3.org/1999/xlink">
<g transform="translate(-7233 -2304)">
<g opacity=".08">
<use transform="translate(7226 2255)" fill="#4A5CEF" xlink:href="#a"/>
</g>
</g>
<defs>
<path id="a" d="m62.82 85.4c0-6.84-4.86-10.98-10.8-10.98-1.8 0-3.06 0.54-3.6 0.9 0.18-7.38 5.58-15.66 13.5-17.46v-8.46c-10.08 1.08-23.94 10.26-23.94 31.5 0 10.26 6.12 15.3 13.14 15.3 6.66 0 11.7-4.86 11.7-10.8zm-30.78 0c0-6.84-4.86-10.98-10.8-10.98-1.8 0-3.06 0.54-3.6 0.9 0.18-7.38 5.58-15.66 13.5-17.46v-8.46c-10.08 1.08-23.94 10.26-23.94 31.5 0 10.26 6.12 15.3 13.14 15.3 6.66 0 11.7-4.86 11.7-10.8z"/>
</defs>
</svg>

<svg width="56" height="48" viewBox="0 0 56 48" version="1.1" xmlns="http://www.w3.org/2000/svg" xmlns:xlink="http://www.w3.org/1999/xlink">
<title>&#226;&#128;&#156;</title>
<desc>Created using Figma</desc>
<g id="Canvas" transform="translate(-7233 -2304)">
<g id="&#226;&#128;&#156;" opacity="0.08">
<use xlink:href="#path0_fill" transform="translate(7226 2255)" fill="#4A5CEF"/>
</g>
</g>
<defs>
<path id="path0_fill" d="M 62.82 85.4C 62.82 78.56 57.96 74.42 52.02 74.42C 50.22 74.42 48.96 74.96 48.42 75.32C 48.6 67.94 54 59.66 61.92 57.86L 61.92 49.4C 51.84 50.48 37.98 59.66 37.98 80.9C 37.98 91.16 44.1 96.2 51.12 96.2C 57.78 96.2 62.82 91.34 62.82 85.4ZM 32.04 85.4C 32.04 78.56 27.18 74.42 21.24 74.42C 19.44 74.42 18.18 74.96 17.64 75.32C 17.82 67.94 23.22 59.66 31.14 57.86L 31.14 49.4C 21.06 50.48 7.2 59.66 7.2 80.9C 7.2 91.16 13.32 96.2 20.34 96.2C 27 96.2 32.04 91.34 32.04 85.4Z"/>
</defs>
</svg>
